src/2-landmarks/desktop--wait.svg

<svg width="1300" height="1000" viewBox="0 0 1300 1000" fill="none" xmlns="http://www.w3.org/2000/svg"><path fill-rule="evenodd" clip-rule="evenodd" d="M1059.16 444.086c-3.77 1.408-10.81 1.91-12.65 1.914 0 0-8.3-.069-13.14-1.914-5.44-2.079-8.48-4.109-12.16-8.575-2.49-3.022-4.44-8.223-5.32-10.853a22.077 22.077 0 0 1-.8-3.31l-4.09-24.154s-.5-3.492-.49-5.742c.02-5.351.75-8.493 2.92-13.398 2.23-5.038 4.18-7.735 8.27-11.484 4.35-3.996 7.49-5.742 13.13-7.625 4.38-1.462 7.06-1.907 11.68-1.945 4.96.167 6.81.478 11.55 1.945 4.74 1.577 9.58 4.373 13.26 7.625 3.68 3.252 6.26 7.101 8.27 11.484s2.92 8.615 2.92 13.398c0 1.803-.2 3.959-.49 5.742l-4.86 23.833a25.09 25.09 0 0 1-1.01 3.617c-1.04 2.793-3.21 8.177-5.32 10.829-2.92 3.676-7.16 6.929-11.67 8.613Zm-2.46-6.699c-3.04 1.186-8.71 1.609-10.19 1.613 0 0-6.69-.058-10.58-1.613-4.39-1.752-6.84-3.462-9.8-7.226-1.95-2.474-3.48-6.68-4.22-8.951a20.428 20.428 0 0 1-.74-3.184l-3.27-20.155s-.4-2.943-.39-4.839c.02-4.509.6-7.156 2.35-11.29 1.8-4.246 3.37-6.518 6.66-9.677 3.51-3.368 6.04-4.839 10.58-6.426 3.53-1.232 5.68-1.607 9.41-1.639 4 .141 5.49.403 9.3 1.639 3.82 1.329 7.72 3.685 10.69 6.426 2.96 2.74 5.04 5.983 6.66 9.677s2.35 7.26 2.35 11.29c0 1.52-.16 3.337-.39 4.839l-3.88 19.862a24.563 24.563 0 0 1-.93 3.486c-.87 2.407-2.56 6.742-4.21 8.91-2.35 3.098-5.77 5.839-9.4 7.258Z" fill="#000"/><path fill-rule="evenodd" clip-rule="evenodd" d="m873.123 880.855 16.377-8.634-11.345-169.323c-1.258-18.78 10.747-35.896 28.832-41.109L961 646.221a28.551 28.551 0 0 1 19.424-27.053l22.076-7.447c0-51.667 7.84-158.167 32-163.5 38.5-8.5 62 19 74 53.5 7.17 20.628 21.5 115.5 21.5 115.5l-9.5 1.5-.88 37.032a39.862 39.862 0 0 1-6.06 20.247H1136c2.76 0 5-2.239 5-5v-77.5c0-6.904 5.6-12.5 12.5-12.5s12.5 5.596 12.5 12.5V681c0 10.371-7.89 18.898-18 19.901V900h152v100H0V900h349V700.901c-10.107-1.003-18-9.53-18-19.901v-87.5c0-6.904 5.596-12.5 12.5-12.5s12.5 5.596 12.5 12.5V671a5 5 0 0 0 5 5h107.5c6.904 0 12.5 5.596 12.5 12.5s-5.596 12.5-12.5 12.5H461v199h211V603c-11.046 0-20-8.954-20-20s8.954-20 20-20h300c11.046 0 20 8.954 20 20s-8.954 20-20 20H679v297h183.491l-.026-.713a20 20 0 0 1 10.658-18.432Zm221.267-188.868a39.861 39.861 0 0 0 13.62-8.987H1138c5.52 0 10-4.477 10-10v-79.5c0-3.038 2.46-5.5 5.5-5.5s5.5 2.462 5.5 5.5V679c0 8.284-6.72 15-15 15h-54.68l5.07-2.013ZM1043 712.384 1071.68 701H1141v199h-98V712.384Zm-52.5 20.837 45.5-18.059V900h-36.5v-17.779c3.73 0 6.63-3.249 6.2-6.955l-1.2-10.545-14-131.5Zm2.999 144.009V900h-78.496l.052-3.099a9.999 9.999 0 0 1 6.71-9.277l21.234-7.394-23.925-154.291a30.002 30.002 0 0 1 12.749-29.387L1013 641.221l99.5-23v36.898a29.996 29.996 0 0 1-18.59 27.746l-112.739 46.356 17.17 142.548a4.877 4.877 0 0 1-4.842 5.461Zm-85.634 17.321-.351 5.449H871.5v-4.069a10 10 0 0 1 6.209-9.254l20.79-8.516-12.328-177.824c-.976-14.077 7.991-26.931 21.538-30.877l91.791-26.739-75.337 51.328a30 30 0 0 0-12.753 29.4L935 875.221l-17.228 6.175a15 15 0 0 0-9.907 13.155Zm188.635-405.83c13.91 29.977 26 121.5 26 121.5l-111.5 24-41.296 10.442a1.303 1.303 0 0 1-1.571-1.626 26.057 26.057 0 0 1 17.071-17.548l25.796-8.268 65-24-11.28-63.634a1.54 1.54 0 0 0-3.05.421l5.83 58.713-58.5 22.5c0-99.243 13.49-137.023 20.03-149.508 1.97-3.772 5.51-6.252 9.69-7.045 12.43-2.356 40.63-2.92 57.78 34.053ZM454 900V701h-98v199h98Zm205-317c0-7.18 5.82-13 13-13h300c7.18 0 13 5.82 13 13s-5.82 13-13 13H672c-7.18 0-13-5.82-13-13ZM468.5 683a5.5 5.5 0 1 1 0 11H353c-8.284 0-15-6.716-15-15v-85.5a5.5 5.5 0 0 1 11 0V673c0 5.523 4.477 10 10 10h109.5Z" fill="#000"/><path d="M933.949 612.96v-.01l1.83.01h-1.83Z" fill="#000"/></svg>

<svg width="1300" height="1000" viewBox="0 0 1300 1000" fill="none" xmlns="http://www.w3.org/2000/svg">
<path fill-rule="evenodd" clip-rule="evenodd" d="M1059.16 444.086C1055.39 445.494 1048.35 445.996 1046.51 446C1046.51 446 1038.21 445.931 1033.37 444.086C1027.93 442.007 1024.89 439.977 1021.21 435.511C1018.72 432.489 1016.77 427.288 1015.89 424.658C1015.53 423.579 1015.28 422.47 1015.09 421.348L1011 397.194C1011 397.194 1010.5 393.702 1010.51 391.452C1010.53 386.101 1011.26 382.959 1013.43 378.054C1015.66 373.016 1017.61 370.319 1021.7 366.57C1026.05 362.574 1029.19 360.828 1034.83 358.945C1039.21 357.483 1041.89 357.038 1046.51 357C1051.47 357.167 1053.32 357.478 1058.06 358.945C1062.8 360.522 1067.64 363.318 1071.32 366.57C1075 369.822 1077.58 373.671 1079.59 378.054C1081.6 382.437 1082.51 386.669 1082.51 391.452C1082.51 393.255 1082.31 395.411 1082.02 397.194L1077.16 421.027C1076.91 422.256 1076.58 423.468 1076.15 424.644C1075.11 427.437 1072.94 432.821 1070.83 435.473C1067.91 439.149 1063.67 442.402 1059.16 444.086ZM1056.7 437.387C1053.66 438.573 1047.99 438.996 1046.51 439C1046.51 439 1039.82 438.942 1035.93 437.387C1031.54 435.635 1029.09 433.925 1026.13 430.161C1024.18 427.687 1022.65 423.481 1021.91 421.21C1021.57 420.171 1021.34 419.105 1021.17 418.026L1017.9 397.871C1017.9 397.871 1017.5 394.928 1017.51 393.032C1017.53 388.523 1018.11 385.876 1019.86 381.742C1021.66 377.496 1023.23 375.224 1026.52 372.065C1030.03 368.697 1032.56 367.226 1037.1 365.639C1040.63 364.407 1042.78 364.032 1046.51 364C1050.51 364.141 1052 364.403 1055.81 365.639C1059.63 366.968 1063.53 369.324 1066.5 372.065C1069.46 374.805 1071.54 378.048 1073.16 381.742C1074.78 385.436 1075.51 389.002 1075.51 393.032C1075.51 394.552 1075.35 396.369 1075.12 397.871L1071.24 417.733C1071.01 418.917 1070.71 420.084 1070.31 421.219C1069.44 423.626 1067.75 427.961 1066.1 430.129C1063.75 433.227 1060.33 435.968 1056.7 437.387Z" fill="black"/>
<path fill-rule="evenodd" clip-rule="evenodd" d="M873.123 880.855L889.5 872.221L878.155 702.898C876.897 684.118 888.902 667.002 906.987 661.789L961 646.221C961 633.97 968.816 623.084 980.424 619.168L1002.5 611.721C1002.5 560.054 1010.34 453.554 1034.5 448.221C1073 439.721 1096.5 467.221 1108.5 501.721C1115.67 522.349 1130 617.221 1130 617.221L1120.5 618.721L1119.62 655.753C1119.45 663.082 1117.29 670.039 1113.56 676H1136C1138.76 676 1141 673.761 1141 671V593.5C1141 586.596 1146.6 581 1153.5 581C1160.4 581 1166 586.596 1166 593.5V681C1166 691.371 1158.11 699.898 1148 700.901V900H1300V1000H0V900H349V700.901C338.893 699.898 331 691.371 331 681V593.5C331 586.596 336.596 581 343.5 581C350.404 581 356 586.596 356 593.5V671C356 673.761 358.239 676 361 676H468.5C475.404 676 481 681.596 481 688.5C481 695.404 475.404 701 468.5 701H461V900H672V603C660.954 603 652 594.046 652 583C652 571.954 660.954 563 672 563H972C983.046 563 992 571.954 992 583C992 594.046 983.046 603 972 603H679V900H862.491L862.465 899.287C862.18 891.605 866.324 884.441 873.123 880.855ZM1094.39 691.987C1099.61 689.918 1104.21 686.828 1108.01 683H1138C1143.52 683 1148 678.523 1148 673V593.5C1148 590.462 1150.46 588 1153.5 588C1156.54 588 1159 590.462 1159 593.5V679C1159 687.284 1152.28 694 1144 694H1089.32L1094.39 691.987ZM1043 712.384L1071.68 701H1141V900H1043V712.384ZM990.5 733.221L1036 715.162V900H999.5V882.221C1003.23 882.221 1006.13 878.972 1005.7 875.266L1004.5 864.721L990.5 733.221ZM993.499 877.23V900H915.003L915.055 896.901C915.125 892.707 917.804 889.003 921.765 887.624L942.999 880.23L919.074 725.939C917.301 714.504 922.262 703.07 931.823 696.552L1013 641.221L1112.5 618.221V655.119C1112.5 667.281 1105.16 678.24 1093.91 682.865L981.171 729.221L998.341 871.769C998.691 874.673 996.424 877.23 993.499 877.23ZM907.865 894.551L907.514 900H871.5V895.931C871.5 891.872 873.953 888.216 877.709 886.677L898.499 878.161L886.171 700.337C885.195 686.26 894.162 673.406 907.709 669.46L999.5 642.721L924.163 694.049C914.595 700.568 909.632 712.009 911.41 723.449L935 875.221L917.772 881.396C912.143 883.414 908.25 888.583 907.865 894.551ZM1096.5 488.721C1110.41 518.698 1122.5 610.221 1122.5 610.221L1011 634.221L969.704 644.663C968.728 644.91 967.853 644.004 968.133 643.037C970.55 634.712 976.949 628.135 985.204 625.489L1011 617.221L1076 593.221L1064.72 529.587C1064.59 528.849 1063.95 528.312 1063.2 528.312C1062.29 528.312 1061.58 529.1 1061.67 530.008L1067.5 588.721L1009 611.221C1009 511.978 1022.49 474.198 1029.03 461.713C1031 457.941 1034.54 455.461 1038.72 454.668C1051.15 452.312 1079.35 451.748 1096.5 488.721ZM454 900V701H356V900H454ZM659 583C659 575.82 664.82 570 672 570H972C979.18 570 985 575.82 985 583C985 590.18 979.18 596 972 596H672C664.82 596 659 590.18 659 583ZM468.5 683C471.538 683 474 685.462 474 688.5C474 691.538 471.538 694 468.5 694H353C344.716 694 338 687.284 338 679V593.5C338 590.462 340.463 588 343.5 588C346.538 588 349 590.462 349 593.5V673C349 678.523 353.477 683 359 683H468.5Z" fill="black"/>
<path d="M933.949 612.96V612.95L935.779 612.96H933.949Z" fill="black"/>
</svg>
